X: 157
T:
T:Donald Maclean's Fare
R:reel
M:4/4
L:1/8
K:D
DE|F2BF AFEF|D2DE FABd|e2fd efdB|ABeB dBAG|
F2BF AFEF|D2DE FABd|e2fd efdB|ABde d2:|
B|A3f edfd|A3f edfd|ABdA BdAB|dBAF E2 DE|
F2BF AFEF|D2DE FABd|e2fd efdB|ABde d3:|
